X:115
T:Old Joe
M:4/4
L:1/8
K:C
|:"Am" A,4 C4 | EA-A_E D"E"CA,G, |"Am" A,4 C4 |"F7" _E3E DCA,G, |
"Am"A,2 A,2 C2 D2 | EA-A_E "F7"DCA,C |"C" G,2 c2 "F"cAGF |"G" ECDB,"C" C4 :||
|:"C" c3 d cAG2 |"F" A^GAB cBcd |"C" eg- ge ge"Am"ag  |"G7" ega_b aged |
 "C" c3 d cAG2 |"F" A^GAB cBcd |"G" ega_b agea | gedB "C"c4 :||
